packages/katcn/src/icons/svg/arrow6-solid.svg

<svg width="24" height="25" viewBox="0 0 24 25" fill="none" xmlns="http://www.w3.org/2000/svg">
<path d="M2.23962 5.32989L6.24348 11.3299C6.64387 11.9401 6.64387 12.6519 6.24348 13.2621L2.23962 19.2621C1.63904 20.1773 2.23962 21.296 3.24058 21.296H6.24348C7.04425 21.296 7.74493 20.8892 8.14532 20.279L12.5496 13.7706C13.1501 12.957 13.1501 11.8384 12.5496 10.9231L8.24541 4.31294C7.84503 3.70277 7.04425 3.29599 6.34358 3.29599H3.34068C2.23962 3.29599 1.63904 4.51633 2.23962 5.32989Z" fill="black"/>
<path d="M11.2396 5.32989L15.2435 11.3299C15.6439 11.9401 15.6439 12.6519 15.2435 13.2621L11.2396 19.2621C10.639 20.1773 11.2396 21.296 12.2406 21.296H15.2435C16.0443 21.296 16.7449 20.8892 17.1453 20.279L21.5496 13.7706C22.1501 12.957 22.1501 11.8384 21.5496 10.9231L17.2454 4.31294C16.845 3.70277 16.1444 3.29599 15.3436 3.29599H12.3407C11.2396 3.29599 10.639 4.51633 11.2396 5.32989Z" fill="black"/>
</svg>

<svg xmlns="http://www.w3.org/2000/svg" fill="none" viewBox="0 0 24 25"><path fill="#000" d="m2.24 5.33 4.003 6c.4.61.4 1.322 0 1.932l-4.003 6c-.601.915 0 2.034 1 2.034h3.003c.801 0 1.502-.407 1.902-1.017l4.405-6.508c.6-.814.6-1.933 0-2.848l-4.305-6.61c-.4-.61-1.2-1.017-1.901-1.017H3.34c-1.101 0-1.702 1.22-1.101 2.034"/><path fill="#000" d="m11.24 5.33 4.003 6c.4.61.4 1.322 0 1.932l-4.003 6c-.601.915 0 2.034 1 2.034h3.003c.801 0 1.502-.407 1.902-1.017l4.405-6.508c.6-.814.6-1.933 0-2.848l-4.305-6.61a2.27 2.27 0 0 0-1.901-1.017H12.34c-1.101 0-1.702 1.22-1.101 2.034"/></svg>
